X:60
T:Jemmy Twinkles Wish. THO5.060
M:6/8
L:1/8
N:'B' music printed with second voice an octave down. Not transcribed here.
B:Thompson's Complete Collection of 200 Favourite Dances Vol.5
F:https://www.libraryofdance.org/manuals/1780c-Thompson-Compleat-5.pdf
Z:vmp. Peter Dunk 2024
Q:3/8=100
K:A
e3 cec|dfd BdB|c3 AcA|GBG EGE|
e3 cec|dfd BdB|cec GBG|A3-A3:|
|:c3-cec&C3-CEC|dfd BdB&DFD B,DB,|cec AcA&CEC A,CA,|BdB GBG&B,DB, G,B,G,|
c3-cec&C3-CEC|dfd BdB&DFD B,DB,|cec geg&CEC GEG|a3 A3&A3 A,3:|
W:
W:Half Right and Left, the same back again ./.
W:Lead down the middle, up again and cast off ./:
W:Allemand with Right and Left hands :/.
W:Hands six quite round :/:

